packages/core/src/svgs/tokens/mono/RARE.svg

<svg width="24" height="24" viewBox="0 0 24 24" fill="none" xmlns="http://www.w3.org/2000/svg">
<path d="M11.762 2H13.1906V4.38096H17.0144V9.14287H16.5763C16.2191 7.18572 14.0334 4.81905 11.9667 4.81905C10.4191 4.81905 8.70958 5.57144 8.70958 6.96668C8.70958 8.66668 10.5144 9.57145 11.762 10.1429V13.7381C11.3572 13.5952 10.981 13.4619 10.6858 13.3238C8.67149 12.3715 6.47149 11.1334 6.52387 8.66668C6.57624 5.9762 8.90483 4.38096 11.762 4.38096V2Z" fill="white"/>
<path d="M11.7629 19.6191H12.4676L7.39622 19.6097H7.00098V14.3811H7.39622C7.90098 16.7144 9.88194 19.143 12.6248 19.143C14.6105 19.143 15.482 17.9524 15.3915 16.2287C15.3343 15.1811 14.2963 14.7097 13.1915 14.243V10.5715C13.3603 10.6464 13.5255 10.7291 13.6867 10.8191C15.5438 11.662 17.4772 12.6763 17.4772 15.1097C17.4772 18.1906 14.7963 19.6191 12.7153 19.6191L13.1915 19.5953V22.0001H11.7629V19.6191Z" fill="white"/>
</svg>

<svg xmlns="http://www.w3.org/2000/svg" width="24" height="24" fill="none" viewBox="0 0 24 24">
    <path fill="#fff" d="M11.762 2h1.429v2.381h3.823v4.762h-.438c-.357-1.957-2.543-4.324-4.61-4.324-1.547 0-3.256.752-3.256 2.148 0 1.7 1.804 2.604 3.052 3.176v3.595a13 13 0 0 1-1.076-.414c-2.015-.953-4.215-2.19-4.162-4.657.052-2.69 2.38-4.286 5.238-4.286z"/>
    <path fill="#fff" d="M11.763 19.62h.705l-5.072-.01h-.395v-5.23h.395c.505 2.333 2.486 4.762 5.229 4.762 1.986 0 2.857-1.19 2.767-2.914-.058-1.048-1.096-1.52-2.2-1.986v-3.671q.252.112.495.247c1.857.843 3.79 1.857 3.79 4.29 0 3.082-2.68 4.51-4.762 4.51l.476-.024V22h-1.428z"/>
</svg>
